Flat-Remix-Dark/apps/scalable/seahorse.svg

<svg xmlns="http://www.w3.org/2000/svg" width="384pt" height="384pt" version="1.1" viewBox="0 0 384 384">
 <g transform="translate(0.003905,0.001955)">
  <path style="fill:#f8de66;fill-rule:evenodd" d="m 191.99609,23.25 c -44.71093,0 -80.88281,36.160156 -80.88281,80.88281 0,31.3711 17.67578,58.6875 43.73438,72.1875 v 162.5586 l 36.35937,21.86718 c 0.30078,-116.99218 0.56641,-174.94531 0.52734,-175.46875 0.0859,0 0.17579,0 0.26172,0 44.71094,0 80.88282,-36.42578 80.88282,-81.14453 0,-44.722654 -36.17188,-80.88281 -80.88282,-80.88281 z m -0.26172,23.976562 c 13.27735,0 23.97266,10.691407 23.97266,23.972657 0,13.28125 -10.69531,23.976562 -23.97266,23.976562 -13.27734,0 -23.97656,-10.695312 -23.97656,-23.976562 0,-13.28125 10.69922,-23.972657 23.97656,-23.972657 z m 0,0"/>
  <path style="fill:#ffc72e;fill-rule:evenodd" d="m 191.17578,360.67578 37.32031,-21.78906 c 0,-4.53906 0,-11.03906 0,-19.49219 l -16.66015,-17.78906 16.66015,-14.72656 v -5.5586 l -16.79687,-17.33984 16.79687,-18.01172 -16.92968,-18.19922 16.92968,-16.24219 c 0,-19.50781 0,-31.53125 0,-36.07031 -8.75,3.9375 -23.09375,9.125 -36.96484,8.91797 -0.0469,0 -0.26953,58.67969 -0.35547,176.30078 z m 0,0"/>
 </g>
 <path style="fill-rule:evenodd;opacity:0.3" d="M 255.65234 50.970703 C 237.94921 50.970703 223.68359 65.2272 223.68359 82.935547 C 223.68359 84.988597 223.88337 86.992036 224.25 88.935547 C 227.04566 74.116242 240.00166 62.970703 255.65234 62.970703 C 271.30293 62.970703 284.25413 74.116361 287.04883 88.935547 C 287.41534 86.991962 287.61523 84.988681 287.61523 82.935547 C 287.61523 65.2272 273.35546 50.970703 255.65234 50.970703 z M 363.66797 132.73828 C 361.54144 172.3424 338.14291 206.37716 304.66797 223.40625 L 304.66797 235.40625 C 339.79328 217.53761 363.84375 180.94989 363.84375 138.8457 C 363.84375 136.79564 363.78048 134.75986 363.66797 132.73828 z M 148.33008 132.75391 C 148.21814 134.77032 148.15625 136.80096 148.15625 138.8457 C 148.15625 180.67385 171.72394 217.0957 206.46875 235.0957 L 206.46875 223.0957 C 173.37176 205.94938 150.43298 172.08191 148.33008 132.75391 z M 304.66797 270.03906 L 282.09375 291.69531 L 287.99219 298.03711 L 304.66797 282.03906 L 304.66797 270.03906 z M 299.08008 321.95312 L 282.27148 339.97656 L 287.97266 345.86328 L 304.66797 327.96094 L 299.08008 321.95312 z M 302.27344 372.625 L 282.45312 390.14258 L 288.60156 396.70703 L 304.66797 382.50781 L 304.66797 375.0957 L 302.27344 372.625 z M 206.46875 439.8418 L 206.46875 451.8418 L 254.94922 480.99805 C 254.94935 480.94498 254.94907 480.93197 254.94922 480.87891 L 304.66797 451.85156 L 304.66797 439.85156 L 254.94922 468.87891 C 254.94907 468.93197 254.94935 468.94498 254.94922 468.99805 L 206.46875 439.8418 z" transform="scale(0.75)"/>
 <path style="fill:#ffffff;fill-rule:evenodd;opacity:0.3" d="M 256 31.001953 C 196.38544 31.001953 148.15625 79.215502 148.15625 138.8457 C 148.15625 140.4971 148.20659 142.13579 148.2793 143.76953 C 150.92445 86.503314 198.08681 41.001953 256 41.001953 C 313.90861 41.001953 361.0687 86.496048 363.7207 143.75586 C 363.79347 142.12717 363.84375 140.49205 363.84375 138.8457 C 363.84375 79.215502 315.61457 31.001953 256 31.001953 z M 224.07227 99.935547 C 223.81832 101.56418 223.68359 103.23355 223.68359 104.93555 C 223.68359 122.64387 237.94922 136.9043 255.65234 136.9043 C 273.35546 136.9043 287.61523 122.64387 287.61523 104.93555 C 287.61523 103.23354 287.48042 101.56419 287.22656 99.935547 C 284.83922 115.2525 271.65396 126.9043 255.65234 126.9043 C 239.65071 126.9043 226.46051 115.25251 224.07227 99.935547 z M 287.00977 308.97852 L 282.09375 313.69531 L 300.01172 332.95508 L 304.66797 327.96094 L 287.00977 308.97852 z M 287.02344 356.88086 L 282.27148 361.97656 L 303.31836 383.70117 L 304.66797 382.50781 L 304.66797 375.0957 L 287.02344 356.88086 z M 287.57812 407.61328 L 282.45312 412.14258 L 304.66797 435.86133 L 304.66797 425.86133 L 287.57812 407.61328 z" transform="scale(0.75)"/>
</svg>

<svg width="512" height="512" version="1.1" viewBox="0 0 384 384" xmlns="http://www.w3.org/2000/svg"><g transform="translate(.003905 .001955)" fill-rule="evenodd"><path d="m192 23.25c-44.711 0-80.883 36.16-80.883 80.883 0 31.371 17.676 58.688 43.734 72.188v162.56l36.359 21.867c0.30078-116.99 0.56641-174.95 0.52734-175.47h0.26172c44.711 0 80.883-36.426 80.883-81.145 0-44.723-36.172-80.883-80.883-80.883zm-0.26172 23.977c13.277 0 23.973 10.691 23.973 23.973s-10.695 23.977-23.973 23.977c-13.277 0-23.977-10.695-23.977-23.977s10.699-23.973 23.977-23.973z" fill="#f8de66"/><path d="m191.18 360.68 37.32-21.789v-19.492l-16.66-17.789 16.66-14.727v-5.5586l-16.797-17.34 16.797-18.012-16.93-18.199 16.93-16.242v-36.07c-8.75 3.9375-23.094 9.125-36.965 8.918-0.0469 0-0.26953 58.68-0.35547 176.3z" fill="#ffc72e"/></g><path transform="scale(.75)" d="m255.65 50.971c-17.703 0-31.969 14.256-31.969 31.965 0 2.053 0.19978 4.0565 0.56641 6 2.7957-14.819 15.752-25.965 31.402-25.965 15.651 0 28.602 11.146 31.396 25.965 0.36651-1.9436 0.5664-3.9469 0.5664-6 0-17.708-14.26-31.965-31.963-31.965zm108.02 81.768c-2.1265 39.604-25.525 73.639-59 90.668v12c35.125-17.869 59.176-54.456 59.176-96.561 0-2.0501-0.0633-4.0858-0.17578-6.1074zm-215.34 0.0156c-0.11194 2.0164-0.17383 4.047-0.17383 6.0918 0 41.828 23.568 78.25 58.312 96.25v-12c-33.097-17.146-56.036-51.014-58.139-90.342zm156.34 137.29-22.574 21.656 5.8984 6.3418 16.676-15.998zm-5.5879 51.914-16.809 18.023 5.7012 5.8867 16.695-17.902zm3.1934 50.672-19.82 17.518 6.1484 6.5644 16.066-14.199v-7.4121zm-95.805 67.217v12l48.48 29.156c1.3e-4 -0.0531-1.5e-4 -0.0661 0-0.11914l49.719-29.027v-12l-49.719 29.027c-1.5e-4 0.0531 1.3e-4 0.0661 0 0.11914z" fill-rule="evenodd" opacity=".3"/><path transform="scale(.75)" d="m256 31.002c-59.615 0-107.84 48.214-107.84 107.84 0 1.6514 0.0503 3.2901 0.12305 4.9238 2.6452-57.266 49.808-102.77 107.72-102.77 57.909 0 105.07 45.494 107.72 102.75 0.0728-1.6287 0.12305-3.2638 0.12305-4.9102 0-59.63-48.229-107.84-107.84-107.84zm-31.928 68.934c-0.25395 1.6286-0.38868 3.298-0.38868 5 0 17.708 14.266 31.969 31.969 31.969s31.963-14.26 31.963-31.969c0-1.702-0.13481-3.3714-0.38867-5-2.3873 15.317-15.573 26.969-31.574 26.969-16.002 0-29.192-11.652-31.58-26.969zm62.938 209.04-4.916 4.7168 17.918 19.26 4.6562-4.9941zm0.0137 47.902-4.752 5.0957 21.047 21.725 1.3496-1.1934v-7.4121zm0.55468 50.732-5.125 4.5293 22.215 23.719v-10z" fill="#fff" fill-rule="evenodd" opacity=".3"/></svg>
